cssgg/scroll-v.svg

<svg
  width="24"
  height="24"
  viewBox="0 0 24 24"
  fill="none"
  xmlns="http://www.w3.org/2000/svg"
>
  <path
    d="M9.17154 16.8182L7.75732 18.2324L12 22.475L16.2426 18.2324L14.8284 16.8182L12 19.6466L9.17154 16.8182Z"
    fill="currentColor"
  />
  <path
    d="M14.8284 7.182L16.2426 5.76779L12 1.52515L7.75733 5.76779L9.17155 7.182L12 4.35357L14.8284 7.182Z"
    fill="currentColor"
  />
  <path
    fill-rule="evenodd"
    clip-rule="evenodd"
    d="M12 9.00018C13.6569 9.00018 15 10.3433 15 12.0002C15 13.657 13.6569 15.0002 12 15.0002C10.3431 15.0002 9 13.657 9 12.0002C9 10.3433 10.3431 9.00018 12 9.00018ZM12 11.0002C12.5523 11.0002 13 11.4479 13 12.0002C13 12.5525 12.5523 13.0002 12 13.0002C11.4477 13.0002 11 12.5525 11 12.0002C11 11.4479 11.4477 11.0002 12 11.0002Z"
    fill="currentColor"
  />
</svg>

<svg viewBox="0 0 24 24" xmlns="http://www.w3.org/2000/svg"><g><path d="M9.17 16.81l-1.42 1.41 4.24 4.24 4.24-4.25 -1.42-1.42 -2.83 2.82 -2.83-2.83Z"/><path d="M14.82 7.18l1.41-1.42 -4.25-4.25 -4.25 4.24 1.41 1.41 2.82-2.83 2.82 2.82Z"/><path fill-rule="evenodd" d="M12 9c1.65 0 3 1.34 3 3 0 1.65-1.35 3-3 3 -1.66 0-3-1.35-3-3 0-1.66 1.34-3.01 3-3.01Zm0 2c.55 0 1 .44 1 1 0 .55-.45 1-1 1 -.56 0-1-.45-1-1 0-.56.44-1 1-1Z"/></g></svg>
